Catalina-light/actions/16/view-list-images-symbolic.svg

<?xml version="1.0" encoding="UTF-8" standalone="no"?>
<svg
   xmlns:dc="http://purl.org/dc/elements/1.1/"
   xmlns:cc="http://creativecommons.org/ns#"
   xmlns:rdf="http://www.w3.org/1999/02/22-rdf-syntax-ns#"
   xmlns:svg="http://www.w3.org/2000/svg"
   xmlns="http://www.w3.org/2000/svg"
   xmlns:sodipodi="http://sodipodi.sourceforge.net/DTD/sodipodi-0.dtd"
   xmlns:inkscape="http://www.inkscape.org/namespaces/inkscape"
   viewBox="0 0 16 16"
   id="svg3782"
   version="1.1"
   inkscape:version="0.91 r13725"
   sodipodi:docname="view-list-images-symbolic.svg">
  <metadata
     id="metadata3790">
    <rdf:RDF>
      <cc:Work
         rdf:about="">
        <dc:format>image/svg+xml</dc:format>
        <dc:type
           rdf:resource="http://purl.org/dc/dcmitype/StillImage" />
      </cc:Work>
    </rdf:RDF>
  </metadata>
  <sodipodi:namedview
     pagecolor="#ffffff"
     bordercolor="#666666"
     borderopacity="1"
     objecttolerance="10"
     gridtolerance="10"
     guidetolerance="10"
     inkscape:pageopacity="0"
     inkscape:pageshadow="2"
     inkscape:window-width="640"
     inkscape:window-height="480"
     id="namedview3788"
     showgrid="false"
     inkscape:zoom="39.8125"
     inkscape:cx="4.0816327"
     inkscape:cy="8"
     inkscape:current-layer="svg3782" />
  <defs
     id="defs3051">
    <style
       type="text/css"
       id="current-color-scheme">
      .ColorScheme-Text {
        color:#bebebe;
      }
      </style>
  </defs>
  <path
     style="color:#bebebe;fill:currentColor;fill-opacity:1;stroke:none"
     class="ColorScheme-Text"
     d="M 6.4002198,3 C 6.1793704,3 5.9641323,3.071029 5.7537107,3.2132162 5.5433039,3.3554979 5.3974738,3.5247496 5.3183067,3.7210286 l -0.3183068,0.8170573 -1.4002199,0 c -0.441706,0 -0.8188743,0.1504245 -1.1313908,0.4508465 C 2.1559467,5.2894416 2,5.6514528 2,6.0761718 l 0,5.3857422 c 0,0.424719 0.1559466,0.78689 0.4683892,1.087239 C 2.7809057,12.849663 3.1580741,13 3.59978,13 l 8.80044,0 c 0.441691,0 0.818866,-0.150337 1.131391,-0.450847 C 13.844046,12.248804 14,11.886633 14,11.461914 L 14,6.0761718 C 14.000051,5.6514528 13.844053,5.2894415 13.531611,4.9889324 13.219086,4.6885105 12.841926,4.5380859 12.40022,4.5380859 l -1.40022,0 -0.318307,-0.8170573 C 10.602527,3.5247496 10.456793,3.3554979 10.246289,3.2132162 10.035875,3.0709927 9.8206297,3 9.59978,3 L 6.4002198,3 Z m 1.59978,3.0777995 c 0.7708598,0 1.4295221,0.2625794 1.9774605,0.789388 0.5479457,0.5268013 0.8229797,1.1614441 0.8229797,1.9026692 0,0.7411593 -0.275108,1.3741603 -0.8229797,1.9010413 -0.5478642,0.526881 -1.2066007,0.791016 -1.9774605,0.791016 -0.7708671,0 -1.4295145,-0.264135 -1.9774601,-0.791016 C 5.4745868,10.14409 5.1995601,9.511016 5.1995602,8.7698567 c 0,-0.7412251 0.275108,-1.3757951 0.8229796,-1.9026692 0.5478641,-0.5268814 1.2065929,-0.789388 1.97746,-0.789388 z m 0,0.9602864 c -0.4958582,0 -0.919474,0.1692372 -1.2715777,0.5078125 -0.3521038,0.3385607 -0.5277624,0.7471568 -0.5277624,1.2239583 0,0.4767873 0.1756586,0.8837703 0.5277624,1.2223303 C 7.0805259,10.330684 7.5041417,10.5 7.9999998,10.5 8.4957767,10.5 8.9194739,10.330684 9.2715777,9.992187 9.623674,9.653627 9.79934,9.246644 9.79934,8.7698567 9.79934,8.2930552 9.623674,7.8844591 9.2715777,7.5458984 8.9194739,7.2073231 8.4957767,7.0380859 7.9999998,7.0380859 Z"
     id="path3786"
     inkscape:connector-curvature="0" />
</svg>

<svg version="1.1" viewBox="0 0 16 16" xmlns="http://www.w3.org/2000/svg">
<defs>
<style id="current-color-scheme" type="text/css">.ColorScheme-Text {
        color:#363636;
      }</style>
</defs>
<path class="ColorScheme-Text" d="m6.4002 3c-0.22085 0-0.43609 0.071029-0.64651 0.21322-0.21041 0.14228-0.35624 0.31153-0.4354 0.50781l-0.31831 0.81706h-1.4002c-0.44171 0-0.81887 0.15042-1.1314 0.45085-0.31244 0.30051-0.46839 0.66252-0.46839 1.0872v5.3857c0 0.42472 0.15595 0.78689 0.46839 1.0872 0.31252 0.30051 0.68968 0.45085 1.1314 0.45085h8.8004c0.44169 0 0.81887-0.15034 1.1314-0.45085 0.31244-0.30035 0.46839-0.66252 0.46839-1.0872v-5.3857c5.1e-5 -0.42472-0.15595-0.78673-0.46839-1.0872-0.31252-0.30042-0.68968-0.45085-1.1314-0.45085h-1.4002l-0.31831-0.81706c-0.079166-0.19628-0.2249-0.36553-0.4354-0.50781-0.21041-0.14222-0.42566-0.21322-0.64651-0.21322h-3.1996zm1.5998 3.0778c0.77086 0 1.4295 0.26258 1.9775 0.78939 0.54795 0.5268 0.82298 1.1614 0.82298 1.9027 0 0.74116-0.27511 1.3742-0.82298 1.901-0.54786 0.52688-1.2066 0.79102-1.9775 0.79102-0.77087 0-1.4295-0.26414-1.9775-0.79102-0.54795-0.52681-0.82298-1.1599-0.82298-1.901 0-0.74123 0.27511-1.3758 0.82298-1.9027 0.54786-0.52688 1.2066-0.78939 1.9775-0.78939zm0 0.96029c-0.49586 0-0.91947 0.16924-1.2716 0.50781-0.3521 0.33856-0.52776 0.74716-0.52776 1.224 0 0.47679 0.17566 0.88377 0.52776 1.2223 0.3521 0.3385 0.77572 0.50781 1.2716 0.50781 0.49578 0 0.91947-0.16932 1.2716-0.50781 0.3521-0.33856 0.52776-0.74554 0.52776-1.2223 0-0.4768-0.17567-0.8854-0.52776-1.224-0.3521-0.33858-0.7758-0.50781-1.2716-0.50781z" color="#363636" fill="#363636"/>
</svg>
